X:1
T:On the Birthday of the Lord
T:On the Birthday of the Lord
T:John Bacchus Dykes (1823-1876)
T:Transl. by Richard Littledale, 1871
T:Public Domain Courtesy of the Cyber Hymnal™
T:Public Domain Courtesy of the Cyber Hymnal™
C:John Bacchus Dykes (1823-1876)
Z:Public Domain
Z:Courtesy of the Cyber Hymnal™
%%score ( 1 2 ) ( 3 4 )
L:1/8
Q:1/4=190
M:4/4
K:D
V:1 treble 
V:2 treble 
V:3 bass 
V:4 bass 
V:1
 D4 (F2 G2) | A4 A4 | B2 c2 d4 | d8 | [DA]4 B4 | (B2 A2) (G2 F2) | [DG]4 [CA]4 x2 | [DF]8 | %8
w: 1.~On the *|birth- day|of the Lord|An-|gels joy|in * glad *|ac- cord,|And|
w: 2.~These good *|news an|an- gel told|To|the shep-|herds * by *|their fold,|Told|
w: 3.~Born is *|now Em-|man- u- el,|He,|an- nounced|by * Gab- *|ri- el,|He,|
w: 4.~Born to- *|day is|Christ the child,|Born|of Ma-|ry * un- *|de- filed,|Born|
 D4 (F2 G2) | A4 A4 | (B2 c2) [Dd]4 | [Dd]8 | [DA]4 [FB]4 | [Fc]6 [Fc]2 | [Fc]4 [^Ec]4 | [Fc]8 | %16
w: they sing *|in sweet-|est * tone,|Glo-|ry be|to God|a- lone,|Glo-|
w: them of *|the Sav-|ior’s * birth,|Told|them of|the joy|for earth,|Told|
w: whom pro- *|phets old|at- * test,|Com-|eth from|His Fa-|ther’s breast,|Com-|
w: the king *|and Lord|we * own;|Glo-|ry be|to God|a- lone,|Glo-|
 [Ac]4 d4 | e8 ([Bd]2 [Ac]2) | [AB]4 [^GB]4 | A8 ||[M:3/2]"^Refrain" [FA]8 [FB]4 | [FA]8 [DF]4 | %22
w: ry be|to God *|a- lone.||||
w: them of|the joy *|for earth.||||
w: eth from|His Fa- *|ther’s breast.||||
w: ry be|to God *|a- lone.||||
 [FA]4 [FB]8 | A12 d8 [=Gd]4 | [Ac]8 [FB]4 | [EA]8 [DB]4 | [CA]12 | [DA]8 [EA]4 | [Fd]8 [Fd]4 | %29
w: |||||||
w: |||||||
w: |||||||
w: |||||||
 ([Gd]12- | d4 c4 B4) | [FA]8 [DF]4 | [CE]8 [CA]4 | D12 |] %34
w: |||||
w: |||||
w: |||||
w: |||||
V:2
 D4 F2 G2 | A4 A4 | (B2 c2) d4 | d8 | x4 (B,2 C2) | D4 D4 | x10 | x8 | D4 F2 G2 | A4 (F2 E2) | %10
 D4 x4 | x8 | x8 | x8 | x8 | x8 | x4 (^G2 F2) | (E2 A2) x8 | x8 | A8 ||[M:3/2] x12 | x12 | x12 | %23
 F8 (A4 A4 ^G2 F2) x4 | x12 | x12 | x12 | x12 | x12 | x12 | G12 | x12 | x12 | D12 |] %34
V:3
 D,4 (F,2 G,2) | A,4 A,4 | B,2 C2 D4 | D8 | [F,D]4 G,4 | [F,A,]4 [F,D]4 | (=C2 B,2) A,2 x4 | %7
w: ~ ~ *|~ ~|~ ~ ~|~|~ ~|~ ~|~ * ~|
 [D,A,]8 | D,4 F,2 G,2 | A,4 D4 | [B,D]4 ([A,C]2 [G,B,]2) | [F,A,]8 | %12
w: ~|~ ~ ~|~ ~|~ ~ *|~|
 ([F,A,]2 [E,G,]2) (F,2 ^G,2) | [C,A,]6 [C,A,]2 | [C,^G,]4 [C,G,]4 | [F,A,]8 | [F,A,]4 A,4 | %17
w: ~ * ~ *|~ ~|~ ~|~|~ ~|
 [C,E]4 [D,F]4 x4 | (B,2 C2) (D2 E2) | [A,C]8 ||[M:3/2] [D,D]8 [B,,D]4 | [D,D]8 [D,A,]4 | %22
w: ~ ~|~ * ~ *|God|is born|of mai-|
 D4 [B,D]8 | D8 ([CE]4 [B,D]8) [B,D]4 | E8 [D,D]4 | [E,C]8 [E,^G,]4 | (A,8 G,4) | [D,F,]8 [D,G,]4 | %28
w: den fair,|Ma- ry * doth|the Sav-|ior bear;|Ma- *|ry ev-|
 [D,A,]8 [D,^A,]4 | ([G,,B,]12- | B,4 C4 D4) | [A,,D]8 [A,,A,]4 | [A,,G,]8 [A,,G,]4 | [D,F,]12 |] %34
w: er pure,|Ma-||ry ev-|er pure.||
V:4
 D,4 F,2 G,2 | A,4 A,4 | (B,2 C2) D4 | x8 | x4 G,4 | x8 | E,4 E,4 G,2 | x8 | D,4 (F,2 G,2) | %9
 A,4 (D2 C2) | x8 | x8 | x4 D,4 | x8 | x8 | x8 | x4 (E,2 D,2) | x12 | E,4 E,4 | x8 ||[M:3/2] x12 | %21
 x12 | D4 x8 | D8 x16 | (A,4 C,4) x4 | x12 | A,,12 | x12 | x12 | x12 | G,,12 | x12 | x12 | x12 |] %34

